X: 3044
T: The CROSS OF INVERNESS
Q:"Reel."
R: Reel.
%R:reel
B: James Kerr "Merry Melodies" v.3 p.7 #44
Z: 2016 John Chambers <jc:trillian.mit.edu>
M: C
L: 1/8
K: G
uG |\
DB,B,D ECCB | cBAG FDDE |\
DB,B,D ECCG | FDAF G3G |\
DB,B,D ECCB | cBAG FDDE |\
DB,GD CEAE | FDAF G3 |]
d |\
g2g2 ecce | ^caca fdd=c |\
BgBg ecc^g | a^ga^c d2(d=c) |\
(B/c/d) (gd) ecce | (^c/d/e) (ae) fddg |\
bdBg ecAc | (B/c/d) (DF) G3 |]

%%sep 1 1 500
%%sep 1 1 500

